X:1
T:Jimmy Blue
M:C|
L:1/8
Q:80
C:Colin ...? New Zealand
S:Hornpipe
K:HP
a | \
f/2d/2{c}d/2f/2{g}A{g}d/2f/2 | \
{g}G{g}B/2d/2{g}A/2d/2{c}d/2A/2 | \
{g}f/2d/2{c}d/2f/2{g}A{g}d/2f/2 |
{g}A{d}c/2e/2{g}A/2e/2{A}e/2a/2 | \
f/2d/2{c}d/2f/2{g}A{g}d/2f/2 | \
{g}G{g}B/2d/2{g}A/2d/2{c}d/2A/2 |
{g}f/2d/2{c}d/2f/2{ag}ad/2f/2 | \
{g}A{d}c/2e/2{Gdc}d :| \
{g}c/2d/2 |
{gef}e{g}A/2e/2{g}A/2e/2{A}e/2A/2 | \
{Gdc}d{g}A/2f/2{g}A/2d/2{c}d/2A/2 | \
{gef}e{g}A/2f/2{g}A/2e/2{A}e/2A/2 |
f/2{g}A/2d/2f/2{ag}ac/2d/2 | \
{gef}e{g}A/2e/2{g}A/2e/2{A}e/2A/2 | \
{Gdc}d{g}A/2f/2{g}A/2d/2{c}d/2A/2 |
{gef}e{g}A/2f/2{g}A/2e/2{A}e/2f/2 | \
{g}Ae/2A/2{Gdc}d :| \
a |
f/2d/2{c}d/2f/2{g}A/2d/2{c}d/2f/2 | \
{g}G{g}B/2d/2{g}G{g}B/2d/2 | \
{g}A/2d/2{c}d/2f/2{g}f/2a/2d/2f/2 |
{g}A{d}c/2e/2{g}A/2e/2{A}e/2a/2 | \
f/2d/2{c}d/2f/2{g}A/2d/2{c}d/2f/2 | \
{g}G{g}B/2d/2{g}G{g}B/2d/2 |
{g}A/2d/2{c}d/2f/2{g}f/2a/2d/2f/2 | \
{g}A{d}c/2e/2{Gdc}d :| \
{g}c/2d/2 |
e/2A/2{g}A/2e/2{g}A/2e/2{A}e/2A/2 | \
f/2A/2{g}A/2f/2{g}A/2f/2{e}f/2d/2 | \
e/2A/2{g}A/2e/2{g}A/2e/2{A}e/2A/2 |
f/2{g}A/2d/2f/2{ag}ac/2d/2|1
e/2A/2{g}A/2e/2{g}A/2e/2{A}e/2A/2 | \
f/2A/2{g}A/2f/2{g}A/2f/2{e}f/2d/2 |
{gef}e{g}A/2f/2{g}A/2e/2{A}e/2f/2 | \
{g}Ae/2A/2{Gdc}d :| \
e/2A/2{g}A/2e/2{g}Ae/2A/2 |
f/2A/2{g}A/2f/2{g}Af/2d/2 | \
{gef}e{g}A/2f/2{g}A/2e/2{A}e/2f/2 | \
{g}Ae/2A/2{Gdc}d|]
